local/share/icons/dracula-icons-main/scalable/apps/media-player-banshee.svg

<?xml version="1.0" encoding="UTF-8"?>
<svg xmlns="http://www.w3.org/2000/svg" xmlns:xlink="http://www.w3.org/1999/xlink" width="64" height="64" viewBox="0 0 64 64">
<path fill-rule="nonzero" fill="rgb(17.647059%, 20.784314%, 25.882353%)" fill-opacity="1" d="M 32 5 C 46.910156 5 59 17.085938 59 32 C 59 46.910156 46.910156 59 32 59 C 17.085938 59 5 46.910156 5 32 C 5 17.085938 17.085938 5 32 5 Z M 32 5 "/>
<path fill-rule="nonzero" fill="rgb(100%, 100%, 100%)" fill-opacity="1" d="M 46.871094 37.476562 C 46.871094 44.394531 40.5625 50 32.78125 50 C 25 50 18.695312 44.394531 18.695312 37.476562 C 18.695312 30.5625 25.003906 24.957031 32.78125 24.957031 C 40.5625 24.957031 46.871094 30.5625 46.871094 37.476562 "/>
<path fill-rule="evenodd" fill="rgb(24.313725%, 67.45098%, 100%)" fill-opacity="1" d="M 29.683594 14 C 20.6875 14.347656 22.199219 18.46875 17.128906 21.757812 C 22.179688 21.914062 23.230469 18.523438 26.535156 18.652344 L 26.535156 41.9375 C 31.542969 42.421875 43.449219 42.949219 42.0625 34.585938 C 40.984375 28.171875 29.675781 32.625 29.675781 32.625 M 35.089844 33.855469 C 36.472656 33.855469 37.648438 34.164062 37.863281 35.59375 C 38.507812 39.917969 29.679688 38.835938 29.679688 38.835938 L 29.679688 35.730469 C 29.679688 35.730469 32.796875 33.835938 35.089844 33.855469 "/>
</svg>

<svg width="64" height="64" version="1.1" viewBox="0 0 64 64" xmlns="http://www.w3.org/2000/svg">
 <g transform="translate(0,16)">
  <g transform="translate(1,1)"></g>
 </g>
 <g transform="matrix(1.1739 0 0 1.1739 3.8261 3.8261)" fill="#2d3542">
  <path d="m24 1c12.703 0 23 10.297 23 23s-10.297 23-23 23-23-10.297-23-23 10.297-23 23-23z" fill="#2d3542"/>
 </g>
 <path d="m46.87 37.478c0 6.9151-6.3078 12.522-14.087 12.522-7.7838 0-14.087-5.6066-14.087-12.522 0-6.9151 6.3078-12.522 14.087-12.522 7.7776 0 14.087 5.6066 14.087 12.522" fill="#ffffff"/>
 <path d="m29.683 14c-8.9937 0.34904-7.4833 4.4687-12.553 7.7588 5.051 0.15339 6.1012-3.2337 9.407-3.1054v23.283c5.0071 0.48365 16.912 1.0143 15.524-7.3487-1.0769-6.4143-12.387-1.9628-12.387-1.9628m5.4172 1.2287c1.3821 0 2.556 0.31148 2.7704 1.7421 0.648 4.3231-8.1814 3.24-8.1814 3.24v-3.1054s3.1179-1.8955 5.411-1.8767" fill="#3eacff" fill-rule="evenodd"/>
</svg>
